static/media/skill.5deff9a0.svg

<?xml version="1.0" encoding="UTF-8"?>
<svg width="28px" height="28px" viewBox="0 0 28 28" version="1.1" xmlns="http://www.w3.org/2000/svg" xmlns:xlink="http://www.w3.org/1999/xlink">
    <!-- Generator: Sketch 52.6 (67491) - http://www.bohemiancoding.com/sketch -->
    <title>SKILL</title>
    <desc>Created with Sketch.</desc>
    <g id="SKILL" stroke="none" stroke-width="1" fill="none" fill-rule="evenodd">
        <g id="user">
            <rect id="Rectangle" fill="#D8D8D8" opacity="0" x="0" y="0" width="28" height="28"></rect>
            <path d="M26.4392545,19.9173584 L22.5159726,17.6687622 C23.5122319,15.3744507 23.5483812,12.7088623 22.5159726,10.3314514 L26.2014863,8.21871947 C26.7284494,7.91687012 26.9091962,7.24780273 26.6047239,6.72485352 C26.300682,6.20169069 25.6267545,6.02224733 25.0997914,6.32452395 L21.4116956,8.43853763 C19.9102059,6.44799805 17.6246193,5.07312012 15.0139036,4.7678528 L15.0139036,1.09375 C15.0139036,0.489624023 14.5205078,0 13.9122087,0 C13.3036944,0 12.8105138,0.489624023 12.8105138,1.09375 L12.8105138,4.7678528 C10.1997981,5.07290651 7.91399629,6.44778444 6.41250659,8.43832396 L2.65275753,6.28329466 C2.12579449,5.98144531 1.45208222,6.16046145 1.14782509,6.68362428 C0.843567915,7.20678711 1.02409958,7.87564088 1.55106262,8.17770384 L5.30822964,10.3312378 C4.31197034,12.6255493 4.27582097,15.2911377 5.30822964,17.6685486 L1.70534298,19.7336426 C1.1785951,20.0357056 0.997848252,20.7045593 1.3021054,21.2277221 C1.60786876,21.7534485 2.2826569,21.9286194 2.8070379,21.6280518 L6.41250659,19.5614624 C7.91033833,21.5473022 10.1954946,22.9264526 12.8102986,23.2321472 L12.8102986,26.90625 C12.8102986,27.510376 13.3036944,28 13.9119935,28 C14.5205078,28 15.0136884,27.510376 15.0136884,26.90625 L15.0136884,23.2321472 C17.6282773,22.9266663 19.9134335,21.5477295 21.4116956,19.561676 L25.3375596,21.8117676 C25.862586,22.1127624 26.537159,21.9363098 26.8424921,21.411438 C27.1467492,20.8882751 26.9662176,20.2194214 26.4392545,19.9173584 Z M13.9122087,6.890625 C17.8606661,6.890625 21.0732256,10.0798035 21.0732256,14 C21.0732256,15.8012695 20.3945644,17.447876 19.2784527,18.7018432 C18.7928032,17.6698303 18.0164526,16.7986755 17.0380528,16.1943359 C17.8057965,15.4148255 18.2802569,14.3497009 18.2802569,13.1760559 C18.2802569,10.7937317 16.3281912,8.85574342 13.928562,8.85574342 C11.5289327,8.85574342 9.57686706,10.7937317 9.57686706,13.1760559 C9.57686706,14.3432922 10.0463784,15.4030762 10.806591,16.1815186 C9.84497481,16.7700501 9.04732192,17.6358643 8.54596463,18.7018432 C7.42963783,17.447876 6.75119174,15.8012695 6.75119174,14 C6.75119174,10.0798035 9.96353614,6.890625 13.9122087,6.890625 Z" id="Shape" fill="#626774" fill-rule="nonzero"></path>
        </g>
    </g>
</svg>

<svg width="28" height="28" xmlns="http://www.w3.org/2000/svg"><path d="M26.44 19.917l-3.924-2.248a9.226 9.226 0 0 0 0-7.338l3.685-2.112a1.09 1.09 0 0 0 .404-1.494 1.106 1.106 0 0 0-1.505-.4l-3.688 2.114a9.382 9.382 0 0 0-6.398-3.671V1.094C15.014.49 14.52 0 13.912 0c-.608 0-1.101.49-1.101 1.094v3.674a9.381 9.381 0 0 0-6.398 3.67l-3.76-2.155a1.106 1.106 0 0 0-1.505.4 1.09 1.09 0 0 0 .403 1.495l3.757 2.153a9.226 9.226 0 0 0 0 7.338l-3.603 2.065a1.09 1.09 0 0 0-.403 1.494c.306.525.98.7 1.505.4l3.606-2.067a9.384 9.384 0 0 0 6.397 3.671v3.674c0 .604.494 1.094 1.102 1.094.609 0 1.102-.49 1.102-1.094v-3.674a9.384 9.384 0 0 0 6.398-3.67l3.926 2.25c.525.3 1.2.124 1.504-.4a1.09 1.09 0 0 0-.403-1.495zM13.911 6.891c3.949 0 7.161 3.189 7.161 7.109a7.05 7.05 0 0 1-1.795 4.702 5.9 5.9 0 0 0-2.24-2.508 4.29 4.29 0 0 0 1.242-3.018c0-2.382-1.952-4.32-4.351-4.32-2.4 0-4.352 1.938-4.352 4.32a4.29 4.29 0 0 0 1.23 3.006 5.9 5.9 0 0 0-2.261 2.52A7.05 7.05 0 0 1 6.751 14c0-3.92 3.213-7.11 7.161-7.11z" fill="#626774"/></svg>
